dist/img/icons/main/flags.svg

<svg width="20" height="19" viewBox="0 0 20 19" fill="none" xmlns="http://www.w3.org/2000/svg">
<g clip-path="url(#clip0_1255_9893)">
<path d="M13.2785 2.7709C11.1779 2.7709 9.49701 1.48443 6.90217 1.48443C5.84504 1.48443 4.91033 1.68193 4.04605 2.02063C4.19434 0.917142 3.31318 -0.0417639 2.20965 0.00146855C1.29903 0.0371307 0.553167 0.770078 0.502809 1.68004C0.457462 2.499 0.965823 3.20564 1.68749 3.4608V18.5547C1.68749 18.8007 1.88688 19.0001 2.1328 19.0001H2.42968C2.6756 19.0001 2.87499 18.8007 2.87499 18.5547V14.0422C4.04108 13.5026 5.54931 12.9636 7.90895 12.9636C10.0096 12.9636 11.6905 14.2501 14.2853 14.2501C16.1894 14.2501 17.6969 13.6104 19.1098 12.6561C19.3543 12.491 19.5 12.2142 19.5 11.9191V2.20885C19.5 1.55761 18.8244 1.12703 18.2337 1.40135C16.8689 2.03532 15.0326 2.7709 13.2785 2.7709ZM2.28124 1.03912C2.69048 1.03912 3.02343 1.37207 3.02343 1.78131C3.02343 2.19055 2.69048 2.5235 2.28124 2.5235C1.872 2.5235 1.53905 2.19055 1.53905 1.78131C1.53905 1.37207 1.872 1.03912 2.28124 1.03912ZM18.3125 11.7761C17.4546 12.3957 15.9172 13.0626 14.2853 13.0626C11.9246 13.0626 10.2683 11.7761 7.90895 11.7761C6.20132 11.7761 4.11344 12.1541 2.87499 12.7409V3.9584C3.73285 3.33883 5.27032 2.67193 6.90217 2.67193C9.26289 2.67193 10.9192 3.9584 13.2785 3.9584C14.9826 3.9584 17.0717 3.26027 18.3125 2.67193V11.7761Z" fill="#161C25"/>
</g>
<defs>
<clipPath id="clip0_1255_9893">
<rect width="19" height="19" fill="white" transform="translate(0.5)"/>
</clipPath>
</defs>
</svg>

<svg width="20" height="19" fill="none" xmlns="http://www.w3.org/2000/svg"><g clip-path="url(#clip0_1255_9893)"><path d="M13.278 2.77c-2.1 0-3.781-1.286-6.376-1.286a7.7 7.7 0 00-2.856.537 1.781 1.781 0 10-2.359 1.44v15.094c0 .246.2.445.446.445h.297c.246 0 .445-.2.445-.445v-4.513c1.166-.54 2.674-1.078 5.034-1.078 2.1 0 3.782 1.286 6.376 1.286 1.904 0 3.412-.64 4.825-1.594a.889.889 0 00.39-.737V2.21a.89.89 0 00-1.266-.808c-1.365.634-3.201 1.37-4.956 1.37zM2.281 1.04a.743.743 0 11-.001 1.485.743.743 0 01.001-1.486zm16.032 10.736c-.858.62-2.396 1.287-4.028 1.287-2.36 0-4.017-1.287-6.376-1.287-1.708 0-3.796.378-5.034.965V3.958c.858-.62 2.395-1.286 4.027-1.286 2.36 0 4.017 1.286 6.376 1.286 1.705 0 3.794-.698 5.034-1.286v9.104z" fill="#161C25"/></g><defs><clipPath id="clip0_1255_9893"><path fill="#fff" transform="translate(.5)" d="M0 0h19v19H0z"/></clipPath></defs></svg>
